dist/assets/zoho-7Ta-Jkmv.svg

<svg width="67" height="29" viewBox="0 0 67 29" fill="none" xmlns="http://www.w3.org/2000/svg">
<g clip-path="url(#clip0_214_3788)">
<path d="M30.2046 22.7761C29.6998 22.7761 29.1884 22.6711 28.6966 22.4548L18.2063 17.78C16.3311 16.9474 15.4854 14.7379 16.3181 12.8627L20.9927 2.37244C21.8254 0.497147 24.035 -0.348582 25.9103 0.48409L36.4006 5.15887C38.2757 5.99154 39.1215 8.20101 38.2888 10.0762L33.6142 20.5665C32.9912 21.9565 31.6274 22.7761 30.2047 22.7761M29.5687 20.4879C30.3621 20.8418 31.2931 20.4814 31.6471 19.6945L36.3219 9.2042C36.6759 8.41083 36.3154 7.47991 35.5285 7.12582L25.0317 2.45117C24.2384 2.09695 23.3073 2.45763 22.9533 3.24441L18.2786 13.7347C17.9245 14.5281 18.285 15.459 19.0718 15.8131L29.5687 20.4879Z" fill="#089949"/>
<path d="M63.1114 22.7832H51.6245C49.5723 22.7832 47.9004 21.1113 47.9004 19.0591V7.57222C47.9004 5.51995 49.5723 3.84814 51.6245 3.84814H63.1114C65.1635 3.84814 66.8354 5.51995 66.8354 7.57222V19.0591C66.8354 21.1113 65.1635 22.7832 63.1114 22.7832ZM51.6245 5.99866C50.7591 5.99866 50.0509 6.70671 50.0509 7.57222V19.0591C50.0509 19.9245 50.7591 20.6327 51.6245 20.6327H63.1114C63.9769 20.6327 64.6849 19.9245 64.6849 19.0591V7.57222C64.6849 6.70671 63.9769 5.99866 63.1114 5.99866H51.6245Z" fill="#F9B21D"/>
<path d="M20.0945 9.67752L18.5472 13.1393C18.5276 13.1786 18.5079 13.2114 18.4883 13.2441L19.0915 16.9682C19.2292 17.8271 18.6455 18.6336 17.7933 18.7712L6.45053 20.607C6.03836 20.6728 5.61685 20.5739 5.27695 20.3316C4.93605 20.0891 4.71318 19.7219 4.64751 19.3089L2.81177 7.96615C2.74598 7.55398 2.84488 7.13247 3.08713 6.79258C3.32966 6.45167 3.69693 6.2288 4.10997 6.16326L15.4526 4.3274C15.5379 4.31434 15.6231 4.30775 15.7017 4.30775C16.4558 4.30775 17.131 4.85847 17.2556 5.63219L17.8654 9.38251L19.4651 5.79598L19.3799 5.29116C19.0522 3.26526 17.1376 1.88187 15.1118 2.20971L3.76907 4.04544C3.28671 4.119 2.82403 4.28863 2.40844 4.54429C1.99285 4.79995 1.63281 5.13644 1.34965 5.53381C0.766098 6.34024 0.536631 7.32365 0.694091 8.30718L2.52982 19.6499C2.68715 20.6333 3.21822 21.4921 4.02465 22.0757C4.66069 22.5412 5.41463 22.7773 6.19495 22.7773C6.39158 22.7773 6.5948 22.7641 6.79803 22.7314L18.1408 20.8956C20.1667 20.5677 21.5501 18.6532 21.2222 16.6273L20.0945 9.67752Z" fill="#E42527"/>
<path d="M33.6992 15.0925L35.3644 11.362L34.8924 7.89351C34.8333 7.4806 34.9449 7.06743 35.2006 6.73312C35.4563 6.39881 35.8235 6.1824 36.243 6.12991L47.625 4.58247C47.6972 4.576 47.7693 4.56954 47.8414 4.56954C48.1823 4.56954 48.5102 4.68098 48.7921 4.89079C48.8445 4.93009 48.8904 4.97599 48.9363 5.01529C49.4511 4.47497 50.1154 4.10059 50.8443 3.94009C50.6324 3.64838 50.3782 3.38983 50.0902 3.17296C49.297 2.56976 48.32 2.31405 47.3366 2.44513L35.9415 3.99258C34.958 4.12366 34.0794 4.63508 33.4826 5.42833C32.8796 6.2217 32.6239 7.19864 32.7549 8.18205L33.6992 15.0925ZM53.0669 17.0136L51.572 5.99883C50.7328 6.02507 50.0575 6.71993 50.0575 7.56566V10.7981L50.9426 17.302C51.0016 17.7152 50.8902 18.1281 50.6345 18.4625C50.3787 18.797 50.0116 19.0133 49.592 19.0657L38.2099 20.6132C37.7969 20.6721 37.3838 20.5607 37.0495 20.305C36.7152 20.0493 36.4988 19.6821 36.4463 19.2625L35.9217 15.4007L34.2564 19.1313L34.3154 19.5509C34.4465 20.5345 34.958 21.413 35.7513 22.0096C36.4069 22.5079 37.1872 22.7702 38.0001 22.7702C38.1707 22.7702 38.3411 22.7571 38.5115 22.7373L49.8804 21.2032C50.8639 21.0721 51.7425 20.5607 52.3392 19.7673C52.9423 18.974 53.198 17.997 53.0669 17.0136Z" fill="#226DB4"/>
<path d="M20.9535 28.2301L22.5795 25.8306H21.242C21.2073 25.8306 21.1739 25.8167 21.1493 25.7921C21.1247 25.7675 21.1109 25.7342 21.1108 25.6994V25.3782C21.1108 25.306 21.1699 25.2471 21.242 25.2471H23.4385C23.5105 25.2471 23.5695 25.306 23.5695 25.3782V25.5028C23.5695 25.529 23.5631 25.5553 23.5499 25.5749L21.9567 27.9745H23.386C23.4581 27.9745 23.5171 28.0335 23.5171 28.1056V28.4269C23.5171 28.499 23.4581 28.5581 23.386 28.5581H21.0649C21.0302 28.558 20.9969 28.5441 20.9723 28.5196C20.9477 28.495 20.9339 28.4616 20.9338 28.4269V28.3089C20.9274 28.2762 20.9403 28.2498 20.9535 28.2301ZM27.7984 26.8797C27.7984 25.8963 28.5197 25.1881 29.5031 25.1881C30.5193 25.1881 31.2077 25.8831 31.2077 26.8863C31.2077 27.9025 30.5063 28.6041 29.49 28.6041C28.4672 28.6041 27.7984 27.9025 27.7984 26.8797ZM30.4275 26.8929C30.4275 26.2961 30.1391 25.7849 29.49 25.7849C28.8343 25.7849 28.5851 26.3159 28.5851 26.9191C28.5851 27.4895 28.8934 28.0141 29.5227 28.0141C30.1718 28.0074 30.4277 27.4502 30.4277 26.8929M35.8696 25.2407H36.3548C36.4269 25.2407 36.4858 25.2997 36.4858 25.3717V26.5913H37.8627V25.3717C37.8627 25.2997 37.9217 25.2406 37.9939 25.2406H38.479C38.5512 25.2406 38.6101 25.2997 38.6101 25.3717V28.4206C38.6101 28.4926 38.5512 28.5516 38.479 28.5516H38.0005C37.9657 28.5516 37.9324 28.5377 37.9078 28.5132C37.8832 28.4886 37.8693 28.4553 37.8692 28.4206V27.1879H36.4924V28.4206C36.4924 28.4926 36.4334 28.5516 36.3612 28.5516H35.8761C35.8413 28.5515 35.808 28.5377 35.7835 28.5131C35.7589 28.4886 35.7451 28.4553 35.745 28.4206V25.3717C35.7385 25.2997 35.7975 25.2407 35.8696 25.2407ZM43.1406 26.8796C43.1406 25.8962 43.8619 25.188 44.8453 25.188C45.8615 25.188 46.5501 25.883 46.5501 26.8862C46.5501 27.9024 45.8485 28.604 44.8322 28.604C43.8094 28.604 43.1406 27.9024 43.1406 26.8796ZM45.7633 26.8928C45.7633 26.296 45.4747 25.7847 44.8256 25.7847C44.1701 25.7847 43.9208 26.3158 43.9208 26.919C43.9208 27.4894 44.229 28.014 44.8585 28.014C45.5074 28.0073 45.7633 27.4501 45.7633 26.8928Z" fill="black"/>
</g>
<defs>
<clipPath id="clip0_214_3788">
<rect width="66.1897" height="28.4409" fill="white" transform="translate(0.645752 0.163574)"/>
</clipPath>
</defs>
</svg>

<svg xmlns="http://www.w3.org/2000/svg" width="67" height="29"><g clip-path="url(#a)"><path d="M30.205 22.776a3.7 3.7 0 0 1-1.508-.321l-10.49-4.675a3.73 3.73 0 0 1-1.889-4.917l4.675-10.49A3.73 3.73 0 0 1 25.91.483L36.4 5.16a3.73 3.73 0 0 1 1.889 4.917l-4.675 10.49a3.74 3.74 0 0 1-3.41 2.21m-.635-2.288a1.58 1.58 0 0 0 2.078-.793l4.675-10.49a1.58 1.58 0 0 0-.794-2.08L25.033 2.452a1.58 1.58 0 0 0-2.079.793l-4.674 10.49a1.58 1.58 0 0 0 .793 2.08zm33.542 2.294H51.625A3.73 3.73 0 0 1 47.9 19.06V7.572a3.73 3.73 0 0 1 3.724-3.724h11.487a3.73 3.73 0 0 1 3.724 3.724V19.06a3.73 3.73 0 0 1-3.724 3.724M51.625 6c-.866 0-1.574.708-1.574 1.573V19.06c0 .865.708 1.574 1.573 1.574h11.487c.866 0 1.574-.709 1.574-1.574V7.572c0-.865-.708-1.573-1.574-1.573z"/><path d="m20.095 9.678-1.548 3.461c-.02.04-.04.072-.059.105l.604 3.724a1.573 1.573 0 0 1-1.299 1.803L6.451 20.607a1.6 1.6 0 0 1-1.174-.275 1.55 1.55 0 0 1-.63-1.023L2.813 7.966a1.6 1.6 0 0 1 .275-1.173c.243-.341.61-.564 1.023-.63l11.343-1.836q.129-.02.249-.02c.754 0 1.429.551 1.554 1.325l.61 3.75 1.6-3.586-.086-.505a3.727 3.727 0 0 0-4.268-3.081L3.769 4.045a3.65 3.65 0 0 0-2.42 1.489 3.7 3.7 0 0 0-.655 2.773L2.53 19.65a3.7 3.7 0 0 0 1.495 2.426 3.65 3.65 0 0 0 2.17.701q.297.002.603-.046l11.343-1.835a3.727 3.727 0 0 0 3.081-4.269zM33.7 15.093l1.664-3.731-.472-3.468a1.54 1.54 0 0 1 .309-1.16 1.54 1.54 0 0 1 1.042-.604l11.382-1.548q.108-.01.216-.012c.341 0 .67.111.951.32.052.04.098.086.144.125a3.75 3.75 0 0 1 1.908-1.075 3.6 3.6 0 0 0-.754-.767 3.7 3.7 0 0 0-2.753-.728L35.94 3.993a3.67 3.67 0 0 0-2.458 1.435 3.7 3.7 0 0 0-.728 2.754zm19.367 1.92L51.572 6a1.57 1.57 0 0 0-1.515 1.567v3.232l.886 6.504c.059.413-.053.826-.308 1.16a1.55 1.55 0 0 1-1.043.604L38.21 20.613a1.54 1.54 0 0 1-1.16-.308 1.54 1.54 0 0 1-.604-1.043l-.524-3.861-1.666 3.73.06.42a3.67 3.67 0 0 0 1.435 2.459c.656.498 1.436.76 2.25.76q.255-.002.51-.033l11.37-1.534a3.67 3.67 0 0 0 2.458-1.436c.603-.793.859-1.77.728-2.753M20.954 28.23l1.625-2.4h-1.337a.13.13 0 0 1-.131-.13v-.322a.13.13 0 0 1 .131-.13h2.197a.13.13 0 0 1 .13.13v.125a.13.13 0 0 1-.02.072l-1.592 2.4h1.429a.13.13 0 0 1 .131.13v.322a.13.13 0 0 1-.131.131h-2.321a.13.13 0 0 1-.131-.131v-.118a.1.1 0 0 1 .02-.079m6.844-1.35c0-.984.722-1.692 1.705-1.692 1.016 0 1.705.695 1.705 1.698 0 1.017-.702 1.718-1.718 1.718-1.023 0-1.692-.701-1.692-1.724m2.63.013c0-.597-.289-1.108-.938-1.108-.656 0-.905.53-.905 1.134 0 .57.308 1.095.938 1.095.649-.007.905-.564.905-1.121m5.442-1.652h.485a.13.13 0 0 1 .13.13v1.22h1.378v-1.22c0-.071.059-.13.13-.13h.486c.072 0 .131.059.131.13v3.05a.13.13 0 0 1-.131.13h-.478a.13.13 0 0 1-.132-.13v-1.233h-1.377v1.233a.13.13 0 0 1-.13.13h-.486a.13.13 0 0 1-.131-.13v-3.05a.12.12 0 0 1 .125-.13m7.27 1.639c0-.984.722-1.692 1.705-1.692 1.017 0 1.705.695 1.705 1.698 0 1.016-.701 1.718-1.718 1.718-1.023 0-1.691-.702-1.691-1.724m2.623.013c0-.597-.288-1.108-.937-1.108-.656 0-.905.53-.905 1.134 0 .57.308 1.095.938 1.095.648-.007.904-.564.904-1.121"/></g><defs><clipPath id="a"><path d="M.646.164h66.19v28.44H.646z"/></clipPath></defs></svg>
